src/assets/images/vector-1240.svg

<svg width="201" height="29" viewBox="0 0 201 29" fill="none" xmlns="http://www.w3.org/2000/svg">
<path d="M32.8384 1V0H32.47L32.1896 0.23906L32.8384 1ZM0 29L11.3554 26.9051L3.86342 18.1185L0 29ZM4.92576 24.8L5.57459 25.5609L8.85843 22.7609L8.20961 22L7.56078 21.2391L4.27694 24.0391L4.92576 24.8ZM11.4934 19.2L12.1423 19.9609L15.4261 17.1609L14.7773 16.4L14.1285 15.6391L10.8446 18.4391L11.4934 19.2ZM18.0611 13.6L18.71 14.3609L21.9938 11.5609L21.345 10.8L20.6961 10.0391L17.4123 12.8391L18.0611 13.6ZM24.6288 8L25.2776 8.76094L28.5615 5.96094L27.9127 5.2L27.2638 4.43906L23.98 7.23906L24.6288 8ZM31.1965 2.4L31.8453 3.16094L33.4872 1.76094L32.8384 1L32.1896 0.23906L30.5477 1.63906L31.1965 2.4ZM32.8384 1V2H34.8403V1V0H32.8384V1ZM38.8442 1V2H42.848V1V0H38.8442V1ZM46.8519 1V2H50.8557V1V0H46.8519V1ZM54.8596 1V2H58.8634V1V0H54.8596V1ZM62.8673 1V2H66.8711V1V0H62.8673V1ZM70.875 1V2H74.8788V1V0H70.875V1ZM78.8827 1V2H82.8865V1V0H78.8827V1ZM86.8903 1V2H90.8942V1V0H86.8903V1ZM94.898 1V2H98.9019V1V0H94.898V1ZM102.906 1V2H106.91V1V0H102.906V1ZM110.913 1V2H114.917V1V0H110.913V1ZM118.921 1V2H122.925V1V0H118.921V1ZM126.929 1V2H130.933V1V0H126.929V1ZM134.936 1V2H138.94V1V0H134.936V1ZM142.944 1V2H146.948V1V0H142.944V1ZM150.952 1V2H154.956V1V0H150.952V1ZM158.96 1V2H162.963V1V0H158.96V1ZM166.967 1V2H170.971V1V0H166.967V1ZM174.975 1V2H178.979V1V0H174.975V1ZM182.983 1V2H186.986V1V0H182.983V1ZM190.99 1V2H194.994V1V0H190.99V1ZM198.998 1V2H201V1V0H198.998V1Z" fill="black"/>
</svg>

<svg xmlns="http://www.w3.org/2000/svg" width="201" height="29" fill="none" viewBox="0 0 201 29"><path fill="#000" d="M32.838 1V0h-.368l-.28.24zM0 29l11.355-2.095-7.492-8.786zm4.926-4.2.649.76 3.283-2.8L8.21 22l-.65-.76-3.283 2.8zm6.567-5.6.65.76 3.283-2.8-.649-.76-.648-.76-3.284 2.8zm6.568-5.6.649.76 3.284-2.8-.649-.76-.649-.76-3.284 2.8zM24.63 8l.649.76 3.284-2.8-.65-.76-.648-.76-3.284 2.8zm6.567-5.6.65.76 1.641-1.4-.649-.76-.648-.76-1.642 1.4zM32.839 1v1h2.002V0h-2.002zm6.006 0v1h4.004V0h-4.004zm8.008 0v1h4.004V0h-4.004zm8.008 0v1h4.003V0H54.86zm8.007 0v1h4.004V0h-4.004zm8.008 0v1h4.004V0h-4.004zm8.008 0v1h4.004V0h-4.004zm8.007 0v1h4.004V0H86.89zm8.008 0v1h4.004V0h-4.004zm8.008 0v1h4.004V0h-4.004zm8.007 0v1h4.004V0h-4.004zm8.008 0v1h4.004V0h-4.004zm8.008 0v1h4.004V0h-4.004zm8.007 0v1h4.004V0h-4.004zm8.008 0v1h4.004V0h-4.004zm8.008 0v1h4.004V0h-4.004zm8.008 0v1h4.003V0h-4.003zm8.007 0v1h4.004V0h-4.004zm8.008 0v1h4.004V0h-4.004zm8.008 0v1h4.003V0h-4.003zm8.007 0v1h4.004V0h-4.004zm8.008 0v1H201V0h-2.002z"/></svg>
